app/dist/common/images/dbg-technology-co.svg

<svg height="18" viewBox="0 0 18 18" width="18" xmlns="http://www.w3.org/2000/svg"><path d="m0 0h18v18h-18z" fill="#f0f3fa"/><path d="m10.33 7-1.1 4h.98c.76 0 1.2-.7 1.2-1.15 0-.35-.14-.66-.38-.76.47-.11.97-.77.97-1.4 0-.5-.34-.67-.52-.69zm-2.23 0h1.96l-1.1 4h-1.96zm-4.98 0h2l-1.11 4h-2.01zm2.2 0-1.12 4c1.67 0 2.8-1.62 2.8-2.84 0-.98-1.13-1.18-1.68-1.16zm8.56 0h2.12l-.35 1.34-1.2-1.16-.54 1.82h1.8l-.43 1.98-.4-.56c-.14.19-.55.58-1.07.58.05-.16.1-.42.17-.7l.24-.97h-.41l-.49 1.67c-.3-.03-1.32-.23-1.32-1.54 0-1.04 1.19-2.25 1.88-2.46z" fill="#007dc4"/></svg>

<!-- by TradingView --><svg width="18" height="18" viewBox="0 0 18 18" xmlns="http://www.w3.org/2000/svg"><path fill="#F0F3FA" d="M0 0h18v18H0z"/><path d="m10.33 7-1.1 4h.98c.76 0 1.2-.7 1.2-1.15 0-.35-.14-.66-.38-.76.47-.11.97-.77.97-1.4 0-.5-.34-.67-.52-.69h-1.15ZM8.1 7h1.96l-1.1 4H7l1.1-4ZM3.12 7h2l-1.11 4H2l1.12-4ZM5.32 7 4.2 11C5.87 11 7 9.38 7 8.16 7 7.18 5.87 6.98 5.32 7ZM13.88 7H16l-.35 1.34-1.2-1.16L13.91 9h1.8l-.43 1.98-.4-.56c-.14.19-.55.58-1.07.58.05-.16.1-.42.17-.7l.24-.97h-.41L13.32 11c-.3-.03-1.32-.23-1.32-1.54 0-1.04 1.19-2.25 1.88-2.46Z" fill="#007DC4"/></svg>
